frontend/src/assets/icons/icon-navigation.svg

<?xml version="1.0" encoding="UTF-8"?><!DOCTYPE svg PUBLIC
  "-//W3C//DTD SVG 1.1//EN""http://www.w3.org/Graphics/SVG/1.1/DTD/svg11.dtd">
<svg xmlns="http://www.w3.org/2000/svg" xmlns:xlink="http://www.w3.org/1999/xlink">
  <defs>
    <rect id="path-1" x="0" y="0" width="24" height="24"/>
  </defs>
  <symbol id="Adressen" viewBox="0 0 24 24">
    <g id="Icons" stroke="none" stroke-width="1" fill="none" fill-rule="evenodd">
      <g id="Hauptmenü" transform="translate(-350.000000, -219.000000)" fill="#000000">
        <g id="Symbol" transform="translate(334.000000, 51.000000)">
          <g id="Icon-Adressen" transform="translate(16.000000, 168.000000)">
            <path
              d="M23,3 C23.5522847,3 24,3.44771525 24,4 L24,21 L20,21 L20,19.5 C20,18.9477153 19.5522847,18.5 19,18.5 L19,18.5 L18,18.5 C17.4477153,18.5 17,18.9477153 17,19.5 L17,19.5 L17,21 L7,21 L7,19.5 C7,18.9477153 6.55228475,18.5 6,18.5 L6,18.5 L5,18.5 C4.44771525,18.5 4,18.9477153 4,19.5 L4,19.5 L4,21 L3.69482223e-13,21 L3.69482223e-13,4 C3.69414587e-13,3.44771525 0.44771525,3 1,3 L23,3 Z M21,14 L15,14 L15,16 L21,16 L21,14 Z M7.5,11.5 C5.01471863,11.5 3,12.5073593 3,13.75 L3,16 L3,16 L12,16 L12,13.75 C12,12.5073593 9.98528137,11.5 7.5,11.5 Z M21,10 L15,10 L15,12 L21,12 L21,10 Z M7.5,6 C6.11928813,6 5,7.11928813 5,8.5 C5,9.88071187 6.11928813,11 7.5,11 C8.88071187,11 10,9.88071187 10,8.5 C10,7.11928813 8.88071187,6 7.5,6 Z"
              id="Combined-Shape"></path>
          </g>
        </g>
      </g>
    </g>
  </symbol>
  <symbol id="Controlling" viewBox="0 0 24 24">
    <g id="Icons" stroke="none" stroke-width="1" fill="none" fill-rule="evenodd">
      <g id="Hauptmenü" transform="translate(-350.000000, -331.000000)">
        <g id="Symbol" transform="translate(334.000000, 51.000000)">
          <g id="Icon-Controlling" transform="translate(16.000000, 280.000000)">
            <mask id="mask-2" fill="white">
              <use xlink:href="#path-1"></use>
            </mask>
            <g id="Rectangle"></g>
            <polygon id="Path-8" fill="#000000" mask="url(#mask-2)" points="3 13 3 23 8 23 8 13"></polygon>
            <polygon id="Path-8-Copy" fill="#000000" mask="url(#mask-2)" points="10 7 10 23 15 23 15 7"></polygon>
            <polygon id="Path-8-Copy-2" fill="#000000" mask="url(#mask-2)" points="17 1 17 23 22 23 22 1"></polygon>
          </g>
        </g>
      </g>
    </g>
  </symbol>
  <symbol id="Daten" viewBox="0 0 24 24">
    <g id="Icons" stroke="none" stroke-width="1" fill="none" fill-rule="evenodd">
      <g id="Hauptmenü" transform="translate(-350.000000, -163.000000)">
        <g id="Symbol" transform="translate(334.000000, 51.000000)">
          <g id="Icon-Daten" transform="translate(16.000000, 112.000000)">
            <polygon id="Path-Copy" points="0 0 24 0 24 24 0 24"></polygon>
            <path
              d="M24,9 L24,19 C24,20.1045695 23.1045695,21 22,21 L22,21 L2,21 C0.8954305,21 1.3527075e-16,20.1045695 0,19 L0,19 L0,9 L24,9 Z M9,2 C9.55228475,2 10,2.44771525 10,3 L10,4 L23,4 C23.5522847,4 24,4.44771525 24,5 L24,7 L0,7 L0,3 C-6.76353751e-17,2.44771525 0.44771525,2 1,2 L9,2 Z"
              id="Combined-Shape" fill="#000000"></path>
          </g>
        </g>
      </g>
    </g>
  </symbol>
  <symbol id="Im-Export" viewBox="0 0 24 24">
    <g id="Icons" stroke="none" stroke-width="1" fill="none" fill-rule="evenodd">
      <g id="Hauptmenü" transform="translate(-350.000000, -443.000000)">
        <g id="Symbol" transform="translate(334.000000, 51.000000)">
          <g id="Icon-Im-/Export" transform="translate(15.995361, 392.000000)">
            <polygon id="Path-11" points="0 0 0 24 24 24 24 0"></polygon>
            <polygon id="Path-12" fill="#ffffff"
                     points="17.0011597 3 11.0025635 11 15.0046387 11 15.0046387 21 19.0046387 21 19.0046387 11 22.9997559 11"></polygon>
            <path
              d="M5.00463867,3 L5.00463867,13 C2.33487956,13 1,13 1,13 C1,13 3.00089518,15.6666667 7.00268555,21 L13.0053711,13 L9.00463867,13 L9.00463867,3 L5.00463867,3 Z"
              id="Path-10" fill="#ffffff"></path>
          </g>
        </g>
      </g>
    </g>
  </symbol>
  <symbol id="Nav-auf" viewBox="0 0 24 24">
    <g id="Icons" stroke="none" stroke-width="1" fill="none" fill-rule="evenodd">
      <g id="Hauptmen&#xFC;" transform="translate(-360.000000, -559.000000)">
        <g id="Symbol" transform="translate(334.000000, 51.000000)">
          <g id="Vergr&#xF6;&#xDF;ern" transform="translate(26.000000, 508.000000)">
            <polygon id="Path" points="0 0 24 0 24 24 0 24"/>
            <path
              d="M12 3C16.968 3 21 7.032 21 12 21 16.968 16.968 21 12 21 7.032 21 3 16.968 3 12 3 7.032 7.032 3 12 3ZM10.4271255 6 9 7.41 13.6356275 12 9 16.59 10.4271255 18 16.5 12 10.4271255 6Z"
              id="Combined-Shape" fill="#000000" fill-rule="nonzero"/>
          </g>
        </g>
      </g>
    </g>
  </symbol>
  <symbol id="Nav-zu" viewBox="0 0 24 24">
    <g id="Icons" stroke="none" stroke-width="1" fill="none" fill-rule="evenodd">
      <g id="Hauptmen&#xFC;" transform="translate(-340.000000, -559.000000)">
        <g id="Symbol" transform="translate(334.000000, 51.000000)">
          <g id="Verkleinern" transform="translate(6.000000, 508.000000)">
            <polygon id="Path" points="0 0 24 0 24 24 0 24"/>
            <path
              d="M12 3C16.968 3 21 7.032 21 12 21 16.968 16.968 21 12 21 7.032 21 3 16.968 3 12 3 7.032 7.032 3 12 3ZM13.5728745 6 7.5 12 13.5728745 18 15 16.59 10.3643725 12 15 7.41 13.5728745 6Z"
              id="Combined-Shape" fill="#000000" fill-rule="nonzero"/>
          </g>
        </g>
      </g>
    </g>
  </symbol>
  <symbol id="Recherche" viewBox="0 0 24 24">
    <g id="Icons" stroke="none" stroke-width="1" fill="none" fill-rule="evenodd">
      <g id="Hauptmenü" transform="translate(-350.000000, -275.000000)">
        <g id="Symbol" transform="translate(334.000000, 51.000000)">
          <g id="Icon-Recherche" transform="translate(16.000000, 224.000000)">
            <g id="Document">
              <polygon id="Path" points="0 0 24 0 24 24 0 24"></polygon>
              <circle id="Oval-Copy-2" stroke="#ffffff" stroke-width="3" cx="9" cy="9" r="7.5"></circle>
              <rect id="Rectangle" fill="#ffffff"
                    transform="translate(19.500000, 19.500000) rotate(45.000000) translate(-19.500000, -19.500000) "
                    x="14" y="18" width="11" height="3" rx="1.5"></rect>
            </g>
          </g>
        </g>
      </g>
    </g>
  </symbol>
  <symbol id="Statistik" viewBox="0 0 24 24">
    <g id="Icons" stroke="none" stroke-width="1" fill="none" fill-rule="evenodd">
      <g id="Hauptmenü" transform="translate(-350.000000, -387.000000)">
        <g id="Symbol" transform="translate(334.000000, 51.000000)">
          <g id="Icon-Statistik" transform="translate(16.000000, 336.000000)">
            <polygon id="Path" points="0 0 24 0 24 24 0 24"></polygon>
            <path d="M22,12 C22,17.52 17.52,22 12,22 C6.48,22 2,17.52 2,12 C2,6.48 6.48,2 12,2 L12,2 L12,12 Z"
                  id="Combined-Shape" fill="#000000" fill-rule="nonzero"></path>
            <path d="M13,1 C18.52,1 23,5.48 23,11 L23,11 L13,11 Z" id="Combined-Shape" fill="#000000"
                  fill-rule="nonzero"></path>
          </g>
        </g>
      </g>
    </g>
  </symbol>
  <symbol id="Uebersicht" viewBox="0 0 24 24">
    <g id="Icons" stroke="none" stroke-width="1" fill="none" fill-rule="evenodd">
      <g id="Hauptmenü" transform="translate(-350.000000, -107.000000)">
        <g id="Symbol" transform="translate(334.000000, 51.000000)">
          <g id="Icon-Übersicht" transform="translate(16.000000, 56.000000)">
            <polygon id="Path" points="0 0 24 0 24 24 0 24"></polygon>
            <path
              d="M22,13 L22,21 L2,21 L2,13 L22,13 Z M11,3 L11,11 L2,11 L2,3 L11,3 Z M22,3 L22,11 L13,11 L13,3 L22,3 Z"
              id="Combined-Shape" fill="#000000"></path>
          </g>
        </g>
      </g>
    </g>
  </symbol>
  <symbol id="Nutzer" viewBox="0 0 24 24">
    <g id="Icons" stroke="none" stroke-width="1" fill="none" fill-rule="evenodd">
      <g id="Hauptmenü" transform="translate(-350.000000, -499.000000)">
        <g id="Symbol" transform="translate(334.000000, 51.000000)">
          <g id="Icon-Nutzer" transform="translate(16.000000, 448.000000)">
            <polygon id="Path" points="0 0 24 0 24 24 0 24"></polygon>
            <path
              d="M16.5,11 C18.9964286,11 24,12.2763636 24,14.8181818 L24,14.8181818 L24,20.0001395 L17,20.0001395 L17,14.8181818 C17,12.9146819 15.8763745,11.7208632 14.2635882,11.2413073 C15.0875142,11.0805482 15.8728669,11 16.5,11 Z M16.5058431,9 C18.4457429,9 20,7.43666667 20,5.5 C20,3.56333333 18.4457429,2 16.5058431,2 C14.5659432,2 13,3.56333333 13,5.5 C13,7.43666667 14.5659432,9 16.5058431,9 Z"
              id="Shape-Copy-2" fill="#000000" fill-rule="nonzero"></path>
            <path
              d="M7.5,11 C5.00357143,11 -9.37916411e-13,12.2763636 -9.37916411e-13,14.8181818 L-9.37916411e-13,20.0001395 L15,20.0001395 L15,14.8181818 C15,12.2763636 9.99642857,11 7.5,11 Z M7.50584307,9 C9.4457429,9 11,7.43666667 11,5.5 C11,3.56333333 9.4457429,2 7.50584307,2 C5.56594324,2 4,3.56333333 4,5.5 C4,7.43666667 5.56594324,9 7.50584307,9 Z"
              id="Shape" fill="#000000" fill-rule="nonzero"></path>
          </g>
        </g>
      </g>
    </g>
  </symbol>
  <symbol id="Katalog" viewBox="0 0 24 24">
    <g id="Icons" stroke="none" stroke-width="1" fill="none" fill-rule="evenodd">
      <g id="Hauptmenü" transform="translate(-350.000000, -611.000000)">
        <g id="Symbol" transform="translate(334.000000, 51.000000)">
          <g id="library_books-24px" transform="translate(16.000000, 560.000000)">
            <polygon id="Path" points="0 0 24 0 24 24 0 24"></polygon>
            <path
              d="M4,6 L2,6 L2,22 L18,22 L18,20 L4,20 L4,6 Z M22,2 L6,2 L6,18 L22,18 L22,2 Z M19,11 L9,11 L9,9 L19,9 L19,11 Z M15,15 L9,15 L9,13 L15,13 L15,15 Z M19,7 L9,7 L9,5 L19,5 L19,7 Z"
              id="Shape" fill="#000000" fill-rule="nonzero"></path>
          </g>
        </g>
      </g>
    </g>
  </symbol>
  <symbol id="Tools" viewBox="0 0 24 24">
    <g id="Icons" stroke="none" stroke-width="1" fill="none" fill-rule="evenodd">
      <g id="Hauptmenü" transform="translate(-350.000000, -555.000000)">
        <g id="Symbol" transform="translate(334.000000, 51.000000)">
          <g id="extension-24px" transform="translate(16.000000, 504.000000)">
            <polygon id="Path" points="0 0 24 0 24 24 0 24"></polygon>
            <path
              d="M20.5,11 L19,11 L19,7 C19,5.9 18.1,5 17,5 L13,5 L13,3.5 C13,2.12 11.88,1 10.5,1 C9.12,1 8,2.12 8,3.5 L8,5 L4,5 C2.9,5 2.01,5.9 2.01,7 L2.01,10.8 L3.5,10.8 C4.99,10.8 6.2,12.01 6.2,13.5 C6.2,14.99 4.99,16.2 3.5,16.2 L2,16.2 L2,20 C2,21.1 2.9,22 4,22 L7.8,22 L7.8,20.5 C7.8,19.01 9.01,17.8 10.5,17.8 C11.99,17.8 13.2,19.01 13.2,20.5 L13.2,22 L17,22 C18.1,22 19,21.1 19,20 L19,16 L20.5,16 C21.88,16 23,14.88 23,13.5 C23,12.12 21.88,11 20.5,11 Z"
              id="Path" fill="#000000" fill-rule="nonzero"></path>
          </g>
        </g>
      </g>
    </g>
  </symbol>
</svg>

<?xml version="1.0" encoding="UTF-8"?><!DOCTYPE svg PUBLIC"-//W3C//DTD SVG 1.1//EN""http://www.w3.org/Graphics/SVG/1.1/DTD/svg11.dtd"><svg xmlns="http://www.w3.org/2000/svg"><symbol id="Adressen" viewBox="0 0 24 24"><path class="coloring" d="M23 3a1 1 0 011 1v17h-4v-1.5a1 1 0 00-1-1h-1a1 1 0 00-1 1V21H7v-1.5a1 1 0 00-1-1H5a1 1 0 00-1 1V21H0V4a1 1 0 011-1h22zm-2 11h-6v2h6v-2zM7.5 11.5c-2.485 0-4.5 1.007-4.5 2.25V16h9v-2.25c0-1.243-2.015-2.25-4.5-2.25zM21 10h-6v2h6v-2zM7.5 6a2.5 2.5 0 100 5 2.5 2.5 0 000-5z" fill="#000" fill-rule="evenodd"/></symbol><symbol id="Controlling" viewBox="0 0 24 24"><g fill="none" fill-rule="evenodd"><mask id="a" fill="#fff"><path d="M0 0h24v24H0z"/></mask><path class="coloring" fill="#000" mask="url(#a)" d="M3 13v10h5V13zM10 7v16h5V7zM17 1v22h5V1z"/></g></symbol><symbol id="Daten" viewBox="0 0 24 24"><g fill="none" fill-rule="evenodd"><path d="M0 0h24v24H0z"/><path class="coloring" d="M24 9v10a2 2 0 01-2 2H2a2 2 0 01-2-2V9h24zM9 2a1 1 0 011 1v1h13a1 1 0 011 1v2H0V3a1 1 0 011-1h8z" fill="#000"/></g></symbol><symbol id="Im-Export" viewBox="0 0 24 24"><g fill="none" fill-rule="evenodd"><path d="M-.005 0v24h24V0z"/><path fill="#fff" d="M16.997 3l-6 8H15v10h4V11h3.995z"/><path class="coloring" d="M5 3v10H.995l6.003 8 6.003-8H9V3H5z" fill="#fff"/></g></symbol><symbol id="Nav-auf" viewBox="0 0 24 24"><g fill="none" fill-rule="evenodd"><path d="M0 0h24v24H0z"/><path class="coloring" d="M12 3c4.968 0 9 4.032 9 9s-4.032 9-9 9-9-4.032-9-9 4.032-9 9-9zm-1.573 3L9 7.41 13.636 12 9 16.59 10.427 18l6.073-6-6.073-6z" fill="#000" fill-rule="nonzero"/></g></symbol><symbol id="Nav-zu" viewBox="0 0 24 24"><g fill="none" fill-rule="evenodd"><path d="M0 0h24v24H0z"/><path class="coloring" d="M12 3c4.968 0 9 4.032 9 9s-4.032 9-9 9-9-4.032-9-9 4.032-9 9-9zm1.573 3L7.5 12l6.073 6L15 16.59 10.364 12 15 7.41 13.573 6z" fill="#000" fill-rule="nonzero"/></g></symbol><symbol id="Recherche" viewBox="0 0 24 24"><g fill="none" fill-rule="evenodd"><path d="M0 0h24v24H0z"/><circle stroke="#fff" stroke-width="3" cx="9" cy="9" r="7.5"/><rect fill="#fff" transform="rotate(45 19.5 19.5)" x="14" y="18" width="11" height="3" rx="1.5"/></g></symbol><symbol id="Statistik" viewBox="0 0 24 24"><g fill="none" fill-rule="evenodd"><path d="M0 0h24v24H0z"/><path d="M22 12c0 5.52-4.48 10-10 10S2 17.52 2 12 6.48 2 12 2v10z" fill="#000" fill-rule="nonzero"/><path class="coloring" d="M13 1c5.52 0 10 4.48 10 10H13z" fill="#000" fill-rule="nonzero"/></g></symbol><symbol id="Uebersicht" viewBox="0 0 24 24"><g fill="none" fill-rule="evenodd"><path d="M0 0h24v24H0z"/><path class="coloring" d="M22 13v8H2v-8h20zM11 3v8H2V3h9zm11 0v8h-9V3h9z" fill="#000"/></g></symbol><symbol id="Nutzer" viewBox="0 0 24 24"><g fill="none" fill-rule="evenodd"><path d="M0 0h24v24H0z"/><path class="coloring" d="M16.5 11c2.496 0 7.5 1.276 7.5 3.818V20h-7v-5.182c0-1.903-1.124-3.097-2.736-3.577.824-.16 1.609-.241 2.236-.241zm.006-2A3.488 3.488 0 0020 5.5C20 3.563 18.446 2 16.506 2A3.498 3.498 0 0013 5.5C13 7.437 14.566 9 16.506 9z" fill="#000" fill-rule="nonzero"/><path class="coloring" d="M7.5 11C5.004 11 0 12.276 0 14.818V20h15v-5.182C15 12.276 9.996 11 7.5 11zm.006-2A3.488 3.488 0 0011 5.5C11 3.563 9.446 2 7.506 2A3.498 3.498 0 004 5.5C4 7.437 5.566 9 7.506 9z" fill="#000" fill-rule="nonzero"/></g></symbol><symbol id="Katalog" viewBox="0 0 24 24"><g fill="none" fill-rule="evenodd"><path d="M0 0h24v24H0z"/><path class="coloring" d="M4 6H2v16h16v-2H4V6zm18-4H6v16h16V2zm-3 9H9V9h10v2zm-4 4H9v-2h6v2zm4-8H9V5h10v2z" fill="#000" fill-rule="nonzero"/></g></symbol><symbol id="Tools" viewBox="0 0 24 24"><g fill="none" fill-rule="evenodd"><path d="M0 0h24v24H0z"/><path class="coloring" d="M20.5 11H19V7c0-1.1-.9-2-2-2h-4V3.5a2.5 2.5 0 00-5 0V5H4c-1.1 0-1.99.9-1.99 2v3.8H3.5c1.49 0 2.7 1.21 2.7 2.7 0 1.49-1.21 2.7-2.7 2.7H2V20c0 1.1.9 2 2 2h3.8v-1.5c0-1.49 1.21-2.7 2.7-2.7 1.49 0 2.7 1.21 2.7 2.7V22H17c1.1 0 2-.9 2-2v-4h1.5a2.5 2.5 0 000-5z" fill="#000" fill-rule="nonzero"/></g></symbol></svg>
